X:1
T:Jesus, the Helper
T:Charles Hutchinson Gabriel
T:Jesus, the Helper
T:Public Domain
T:Public Domain
C:Charles Hutchinson Gabriel
Z:Public Domain
%%score ( 1 2 ) 3
L:1/8
M:4/4
K:Eb
V:1 treble 
V:2 treble 
V:3 bass 
V:1
 [EG]>[EG] [EG]>[EG] [EG]>[EF] [EG]>[FA] | [GB]2 [Ac]2 [GB]4 | %2
w: 1.~Je- sus is the help- er of the|trou- bled heart,|
w: 2.~Thro’ the vale of sha- dows all must|some- time go,|
w: 3.~When a heart is si- lent that for|you beats true,|
 [Ge]>[Ge] [Ad]>[Ac] [GB]>[GB] [EG]>E | [DA]2 [EG]2 [DF]4 | %4
w: And to those who sor- row He will|im- part: Strength|
w: When the heart seems break- ing with its|of woe. In|
w: Christ is by you stand- ing; He will|fort you; “Weep|
 [EG]>[EG] [EG]>[EG] [EG]>[EF] [EG]>[FA] | [GB]2 [Ac]2 [GB]4 | %6
w: for ev- ery tri- al He will sure-|ly give, If|
w: that hour, when an- guish chills your heart|and brow, Hear|
w: not,” Je- sus bids you dry the fall-|ing tear; From|
 [Ac]>[Ae] [Ae]>[Ac] [Ac]>[GB] [EG]>E | [EG]2 [DF]2 E4 ||"^Refrain" [GB]2 [Ac]>[GB] [EG]4 | %9
w: we sim- ply trust Him, and His Word|lieve. Help- er|vine, Thou art ev-|
w: His gen- tle whis- per, “I am with|now.” * *||
w: the grave is ban- ished all its dark-|drear. * *||
 e>e f>e (A>A A2) | [Ad]2 [Ad]>[Ac] [FA]2 [Ac]2 | [GB]>[GB] [GB]>[FA] [EG]4 | %12
w: er near, Whis- pering a * *|ing souls to cheer, Help-|er di- vine, Thou art|
w: |||
w: |||
 [GB]2 [Ac]>[GB] [EG]4 | e>e f>e (A>A A2) | [Ee]2 [Ed]>[Ec] [Ec]>[EB] [EG]>E | [EG]2 [DF]2 E4 |] %16
w: ev- er near, Whis-|pering a pro- mise faint- * *|cheer. * * * * * *||
w: ||||
w: ||||
V:2
 x8 | x8 | x15/2 E/ | x8 | x8 | x8 | x15/2 E/ | x4 E4 || x8 | G2 B2 c4 | x8 | x8 | x8 | G2 B2 c4 | %14
w: ||strength||||be-|di-||pro- mise faint-||||ing souls to|
w: ||weight||||you||||||||
w: ||com-||||ness||||||||
 x15/2 E/ | x4 E4 |] %16
w: ||
w: ||
w: ||
V:3
 [E,B,]>[E,B,] [E,B,]>[E,B,] [E,B,]>[E,B,] [E,B,]>[E,B,] | [E,E]2 [E,E]2 [E,E]4 | %2
w: ~ ~ ~ ~ ~ ~ ~ ~|~ ~ ~|
 [E,B,]>[E,B,] [E,C]>[E,D] [E,E]>[E,E] [E,B,]>[G,B,] | [F,B,]2 [E,B,]2 [B,,B,]4 | %4
w: ~ ~ ~ ~ ~ ~ ~ ~|~ ~ ~|
 [E,B,]>[E,B,] [E,B,]>[E,B,] [E,B,]>[E,B,] [E,B,]>[E,B,] | [E,E]2 [E,E]2 [E,E]4 | %6
w: ~ ~ ~ ~ ~ ~ ~ ~|~ ~ ~|
 [A,E]>[A,C] [A,C]>[A,E] [E,E]>[E,E] [E,B,]>[E,G,] | [B,,B,]2 [B,,A,]2 [E,G,]4 || %8
w: ~ ~ ~ ~ ~ ~ ~ ~|~ ~ ~|
 [E,E]2 [E,E]>[E,E] [E,B,]4 | [E,B,]2 [G,E]2 [A,E]>[A,E] [A,E]2 | %10
w: ~ ~ ~ ~|Thou art ev- er near,|
 [B,,B,]2 [B,,B,]>[B,,B,] [B,,B,]2 [B,,D]2 | [E,E]>[E,E] [E,E]>[E,B,] [E,B,]4 | %12
w: ~ ~ ~ ~ ~|~ ~ ~ ~ ~|
 [E,E]2 [E,E]>[E,E] [E,B,]4 | [E,B,]2 [G,E]2 [A,E]>[A,E] [A,E]2 | %14
w: ~ ~ ~ ~|Thou art ev- er near,|
 [A,,C]2 [A,,B,]>[A,,A,] [E,A,]>[E,G,] [E,B,]>[E,G,] | [B,,B,]2 [B,,A,]2 [E,G,]4 |] %16
w: ||

